!!!SOCIAL_FUNCTION:	cremation legend songs
!!!PDT:	1932
!!!OTL: No_7_The_Wonder-boy_and_His_Father_(b).krn
!!!REG: Southwest
!!!LANG: Non-Tone
!!!LING_GROUP: Yuman-Cochimi
**kern	**kern
*staff2	*staff1
=1-	=1-
*clefF4	*clefF4
*k[b-e-a-d-]	*k[b-e-a-d-]
*M2/4	*M2/4
4r	4r
4GG/	8D-\L
.	8D-\J
=2!|:	=2!|:
8GG/	8A-\L
8r	8A-\J
8r	8r
8r	8F\
=3	=3
8GG/	8A-\L
8r	8A-\J
8r	8r
8r	8A-\
=4	=4
8GG/	8A-\
8r	8r
8GG/	8F\L
8r	8F\J
=5	=5
8GG/	8A-\L
8r	8A-\J
8r	8r
8r	8A-\
=6	=6
8GG/	8A-\L
8r	8A-\J
8r	8r
8r	8A-\
=7||	=7||
*M3/4	*M3/4
8GG/	8A-\
8r	8r
8r	8r
8r	8B-\
4r	4A-\
=8||	=8||
*M2/4	*M2/4
8GG/	8B-\L
8r	8c\J
8GG/	8B-\L
8r	8A-\J
=9	=9
8GG/	8B-\L
8r	8c\J
8GG/	8B-\L
8r	8A-\J
=10	=10
8r	8A-\L
8GG/	8A-\J
8r	8A-\L
8r	8B-\J
=11||	=11||
*M3/4	*M3/4
8GG/	4A-\
8r	.
8r	8r
8r	8B-\
8GG/	4A-\
8r	.
=12||	=12||
*M2/4	*M2/4
8GG/	8B-\L
8r	8c\J
8GG/	8B-\L
8r	8A-\J
=13	=13
8GG/	8B-\L
8r	8c\J
8GG/	8B-\L
8r	8A-\J
=14	=14
8r	8A-\L
8GG/	8A-\J
8r	8A-\L
8r	8B-\J
=15	=15
=	=
8GG/	4A-\
8r	.
8GG/	8F\L
8r	8F\J
=16:|!	=16:|!
8GG/	4A-\
8r	.
4r	4r
==	==
*-	*-
